X:20
T:Morning Glory
T:Dance: Morning Glory
R:reel
H:A Red Stags Morris dance
H:Dance and tune composed by Andy Anderson.
C:Andy Anderson.
M:4/4
L:1/8
K:G
BA |: G2 d2 Bc d2 | GFGA G4 | edce d2 B2 |1 cBAG A2 BA :|2 cB A2 G4 |]
d2 de d2 B2 | d^cde d2 B2 | e2 e=f e2 c2 | ede=f e2 c2 |
d2 de d2 B2 | d^cde d2 B2 | edce d2 B2 | cB A2 G4 |]
